X: 31
T: Cold Frosty Morning
M: 4/4
K: G
L: 1/8
|: "Am" (ED)EG A2 AA | (AB)cd e2 AA | "G" B3 A G2 D2 | (GA)Bc d2 DD |
   "Am" (ED)EG A2 AA | (AB)cd e2 dd | (cB)Ac "G" (BAGB) | "Am" A2 AA A2 AA :|
|: "Am" (e2 a2) a4 | (ab)ag e2 ee | "G" (ed)ef g2 gg | "Am" (ed)cd "E7" e2 ee |
   "Am" A2 AA "F" c2 cc | "Dm" d2 dd "Em" e2 dd | "Am" (cB)Ac "G" (BA)GB | "Am" A2 AA A2 AA :|
W: Above B-section chords from Seth Berry;  Fiddler's Fake Book has others
%|: "Am" (e2 a2) a4 | (ab)ag e2 ee | "G" (ed)ef g2 gg | (ed)cd e2 ee |
%   "Am" A2 AA c2 cc | "Dm" d2 dd e2 dd | "Am" (cB)Ac "G" (BA)GB | "Am" A2 AA A2 AA :|

% Ellen provided a version in which it's a "straight through" tune,  no repeats
